video.svg

<svg xmlns:rdf="http://www.w3.org/1999/02/22-rdf-syntax-ns#" xmlns="http://www.w3.org/2000/svg" height="100%" viewBox="0 0 99 82.5" width="100%" version="1.1" xmlns:cc="http://creativecommons.org/ns#" xmlns:dc="http://purl.org/dc/elements/1.1/">
<path d="m26.125 0c-1.448-0.0085863-2.802-0.0030952-4.125 0.03125-18.528 0.35032-22 3.075-22 24.219v36.25c0 21.967 4.381 22 30.781 22h37.469c26.4 0 30.75-0.008 30.75-22v-36.25c0-24.164-4.35-24.219-30.75-24.219h-37.469c-1.65 0-3.208-0.022664-4.656-0.03125zm11.719 5.5c1.284 0.0086 2.638 0.0312 4.094 0.0312h15.124c23.353 0 25.543 0.0068 25.438 19.25v35.375c0 16.993-2.084 17.032-25.438 17.032h-15.124c-23.287 0-25.438-0.023-25.438-17.032v-35.375c0-16.859 1.711-18.986 17.719-19.25 1.143-0.0343 2.341-0.0398 3.625-0.0312zm-32.344 5.688h5.5v5.343h-5.5v-5.343zm82.5 0h5.5v5.343h-5.5v-5.343zm-52.219 10.781c-0.164 0.015-0.304 0.039-0.406 0.093-3.251 1.728-3.251 36.68 0 38.407s36.125-15.733 36.125-19.188c0-3.239-28.866-18.797-35.156-19.312-0.21-0.014-0.399-0.016-0.563 0zm-30.281 0.219h5.5v5.343h-5.5v-5.343zm82.5 0h5.5v5.343h-5.5v-5.343zm-82.5 11h5.5v5.343h-5.5v-5.343zm82.5 0h5.5v5.343h-5.5v-5.343zm-82.5 11h5.5v5.312h-5.5v-5.312zm82.5 0h5.5v5.312h-5.5v-5.312zm-82.5 11h5.5v5.312h-5.5v-5.312zm82.5 0h5.5v5.312h-5.5v-5.312zm-82.5 11h5.5v5.312h-5.5v-5.312zm82.5 0h5.5v5.312h-5.5v-5.312z" style="color:#000000" fill="#333"/>
</svg>

<svg xmlns="http://www.w3.org/2000/svg" viewBox="0 0 99 82.5"><path d="M26.125 0C24.677-.01 23.323-.003 22 .03 3.472.383 0 3.107 0 24.25V60.5c0 21.967 4.38 22 30.78 22h37.47c26.4 0 30.75-.008 30.75-22V24.25C99 .086 94.65.03 68.25.03H30.78c-1.65 0-3.207-.02-4.655-.03zm11.72 5.5c1.283.01 2.637.03 4.093.03h15.124c23.353 0 25.543.008 25.438 19.25v35.376c0 16.993-2.084 17.032-25.438 17.032H41.938c-23.287 0-25.438-.023-25.438-17.032V24.78c0-16.858 1.71-18.985 17.72-19.25a99.23 99.23 0 0 1 3.624-.03zM5.5 11.188H11v5.343H5.5V11.19zm82.5 0h5.5v5.343H88V11.19zm-52.22 10.78c-.163.016-.303.04-.405.094-3.25 1.728-3.25 36.68 0 38.407S71.5 44.735 71.5 41.28c0-3.238-28.866-18.796-35.156-19.31-.21-.015-.4-.017-.563 0zm-30.28.22H11v5.343H5.5V22.19zm82.5 0h5.5v5.343H88V22.19zm-82.5 11H11v5.343H5.5V33.19zm82.5 0h5.5v5.343H88V33.19zm-82.5 11H11V49.5H5.5v-5.312zm82.5 0h5.5V49.5H88v-5.312zm-82.5 11H11V60.5H5.5v-5.312zm82.5 0h5.5V60.5H88v-5.312zm-82.5 11H11V71.5H5.5v-5.312zm82.5 0h5.5V71.5H88v-5.312z" fill="#333" color="#000"/></svg>
